X:1
T:Speed for Thy Life
T:William Howard Doane
T:Speed for Thy Life
T:Public Domain
T:Public Domain
C:William Howard Doane
Z:Public Domain
%%score ( 1 2 ) ( 3 4 )
L:1/8
M:4/4
K:Ab
V:1 treble 
V:2 treble 
V:3 bass 
V:4 bass 
V:1
 [Ec]2 [=D=B]>[DB] [Ec]2 [EA]>[=E_B] | [FA]4 [DF]4 | [CE]2 [=B,=D]>[CE] [CA]2 [E_B]>[EB] | %3
w: 1.~Speed for thy life to the|mount- ain,|Slight not the mess- age di-|
w: 2.~Speed for thy life to the|mount- ain,|List to the warn- ing a-|
w: 3.~Speed, for the day is de-|clin- ing,|Soon its bright mo- ments will|
w: 4.~Speed for thy life to the|mount- ain,|Fly like a bird to its|
 [Ec]6 z2 | [Ec]2 [=D=B]>[DB] [Ec]2 [EA]>[_G_B] | [FA]4 [DF]4 | [CE]2 [EA]>[EA] [DG]2 [DB]2 | %7
w: vine,|Dan- ger and death are be-|fore thee,|Haste, while the hours are|
w: gain;|For- ward, and look not be-|hind thee,|Stay not in all the|
w: fade;|What if a storm should o’er-|take thee,|Where would thou turn for|
w: nest,|Fly to the arms of the|Sav- ior:|There is thy on- ly|
 [CA]6 z2 ||"^Refrain" (E2 E>E) [Ee]4 | (F2 F>F) [=Ec]4 | [DF]2 [EG]>[DF] [CE]2 [EA]>[Ec] | %11
w: thine.||||
w: plain.|Speed * * thee,|thee; * * Sha-|a- round thee are fall- ing;|
w: aid?||||
w: rest.||||
 [Ec]4 [EB]4 | (E2 E>E) [Ee]4 | (F2 F>F) [=Ec]4 | [DF]2 [Fd]>[Fd] [Ec]2 [EA]>[Ec] | [DB]4 [CA]4 |] %16
w: |||||
w: Speed thee,|speed * * thee;|while * * the|ior is call- ing. * *||
w: |||||
w: |||||
V:2
 x8 | x8 | x8 | x8 | x8 | x8 | x8 | x8 || c4 x4 | A4 x4 | x8 | x8 | c4 x4 | A4 x4 | x8 | x8 |] %16
w: ||||||||||||||||
w: ||||||||speed|dows|||Come|Sav-|||
V:3
 [A,,A,]2 [A,,F,]>[A,,F,] [A,,A,]2 [C,A,]>[C,A,] | [D,A,]4 [D,A,]4 | %2
w: ~ ~ ~ ~ ~ ~|~ ~|
 A,2 A,>A, [F,A,]2 [E,G,]>[E,G,] | [A,,A,]6 z2 | [A,,A,]2 [A,,F,]>[A,,F,] [A,,A,]2 [C,A,]>[C,A,] | %5
w: ~ ~ ~ ~ ~ ~|~|~ ~ ~ ~ ~ ~|
 [D,A,]4 [D,A,]4 | [E,A,]2 [E,C]>[E,C] [E,B,]2 [E,G,]2 | [A,,A,]6 z2 || A,2 A,>A, [G,B,]4 | %9
w: ~ ~|~ ~ ~ Speed thee|a-|way, hear and o-|
 [F,C]2 [F,C]>[F,C] [C,C]4 | [D,A,]2 [D,A,]>[D,A,] [A,,A,]2 [C,A,]>[A,,A,] | [E,A,]4 [E,G,]4 | %12
w: ~ ~ ~ ~|~ ~ Speed thee a- way,|hear and|
 A,2 A,>A, [G,B,]4 | [F,C]2 [F,C]>[F,C] [C,C]4 | [D,A,]2 [D,A,]>[D,A,] [E,A,]2 [E,C]>[E,A,] | %15
w: o- bey, * *|||
 [E,G,]4 [A,,A,]4 |] %16
w: |
V:4
 x8 | x8 | A,2 A,>A, x4 | x8 | x8 | x8 | x8 | x8 || A,2 A,>A, x4 | x8 | x8 | x8 | A,2 A,>A, x4 | %13
w: ||~ ~ ~||||||bey, ~ ~|||||
 x8 | x8 | x8 |] %16
w: |||

